X:1
T:Title
L:1/8
M:4/4
K:Ab
V:1 treble nm="Grand Piano"
V:1
 z4 z[Q:1/4=100] C2 C | F2 F2- F F2 G | A2 GF AGFG | C4- C C2 C | G2 G2- G G2 A | B2 AG BBAG | %6
 A4- A c2 A | G2 F2- F B2 G | F2 =E2- E C2 C | D2 CC AGF=E | F6 =EF | G3 G =E2 C2 | A3 G F2 =EF | %13
 G3 G =E2 C2 | B3 A G2 AB | c>c c2- ccBc | d2 B4 GA | B>B B2- BBAB | c2 A2- A F2 G | %19
 A2 A2- A B2 G | F2 =E2- E C2 C | D2 CC AGF=E | F6 z2 |] %23

